X:1
T:Andante
T:Andante
T:Second movement from Sonata in G, K. 283
T:W. A. Mozart
C:W. A. Mozart
%%score { ( 1 4 ) | ( 2 3 ) }
L:1/8
Q:1/4=52
M:4/4
K:C
V:1 treble nm="Piano" snm="Pno."
V:4 treble 
V:2 treble 
V:3 treble 
V:1
!p! .c.c.c.c (Bf) !wedge!f2 | e2{g} fe/d/!<(! c/B/A/G/ TA/G/A/B/!<)! |!f! .c.c.c.c (Bf) !wedge!f2 | %3
{f} ef/d/ c[FB]!>(! [DFB]2 [EGc] z | e2 (g>f)!>)!!p! !wedge!e7/4!wedge!d/4 !wedge!c7/4!wedge!e/4 | %5
 d7/4^f/4 g7/4b/4!<(! dTc !wedge!B z!<)! |!f! A2 (c/B/A/G/)!>(! (^F/G/A/B/) (c/d/e/^f/) | %7
 (g/a/b/c'/)!>)!!p! (d'/b/)(e'/c'/)!<(! ([gb]2 [^fa]) z!<)! | %8
!f! (d3/2e/4^f/4 g/)!wedge!f/!wedge!e/!wedge!d/!>(! (d/c/4) z/4 (B/A/4) z/4 (G^F/) z/!>)! | %9
!p! (d3/2e/4^f/4) (g/4a/4b/4f/4g/4d/4e/4B/4)!<(! !wedge!d/(d/4c/4) !wedge!B/(B/4A/4) G^F/ z/!<)! | %10
!f!!>(! (G/g/) (g2 f) ^de!>)!!p!{a} g^f/e/ |!<(!{e} (de/c/) (BA)!<)!!f! (G/g/) g2 f | %12
 ^de !fermata!z!>(!{a} (g/^f/4e/4) (^c/4=d/4c/4d/4){f} (e/d/4=c/4) (^A/4B/4A/4B/4){d} (c/B/4=A/4)!>)! | %13
!p!!<(! !wedge!G (c/4B/4c/4A/4) !wedge!G (c/4B/4c/4A/4) !wedge!G!<)! z z2 | %14
 z/!f! (^f/g/a/) (_b/g/e/d/) ^c z z2 | %15
 z/!>(! (^f/g/a/){c'} _b/a/4g/4{a} g/=f/4e/4!>)!!p! .d!<(!.d.d.d | (^cg) !wedge!g2 f2{a} gf/e/ | %17
 d2{g} fe/d/!<)!!f!!>(! .c.c.c.c | (Bf) !wedge!f z!>)!!p!!<(! z/ (e/^d/e/ =d/c/B/A/) | %19
 z/ (d/^c/d/) (=c/B/A/^G/)!<)!!f! (A^D) D2 |!p! (d'd) d2!f! Tc4 | %21
!p! !wedge!B/ (e/^d/e/)!f! z/ a/4b/4{d'} c'/b/4a/4!p! !wedge!^g/ (e/d/e/)!f! z/ a/4b/4{d'} c'/b/4a/4 | %22
!p! ^g E2 E- (E/F/^F/G/ ^G/A/_B/=B/) | .c.c.c.c (Bf) !wedge!f2 | %24
 e2{g} fe/d/!<(! c/B/A/G/ TA/G/A/B/!<)! |!f! .c.c.c.c (Bf) !wedge!f2 | %26
{f} ef/d/ (cTB)!>(! (c_b) !wedge!b z | %27
 a2 (c'>_b)!>)!!p! !wedge!a7/4!wedge!g/4 !wedge!f7/4!wedge!a/4 | %28
 g7/4b/4 c'7/4e'/4!<(! gTf !wedge!e z!<)! |!f! d2 (f/e/d/c/)!>(! (B/c/d/e/) (f/g/a/b/) | %30
 (!wedge!c'/d/e/f/)!>)!!p! (g/e/)(a/f/)!<(! ([ce]2 [Bd]) z!<)! | %31
!f! (G3/2A/4B/4 c/)!wedge!B/!wedge!A/!wedge!G/!>(! (G/F/4) z/4 (E/D/4) z/4 (CB,/) z/!>)! | %32
!p! (g3/2a/4b/4) (c'/4d'/4e'/4b/4 c'/4g/4a/4e/4)!<(! !wedge!g/(g/4f/4) !wedge!e/(e/4d/4) cB/ z/!<)! | %33
!f!!>(! (c/c'/) (c'2 _b) ^ga!>)!!p!{d'} c'=b/a/ |!<(!{a} (ga/f/) (eTd)!<)!!f! (c/c'/) c'2 _b | %35
 ^ga !fermata!z!>(!{d'} (c'/b/4a/4) (^f/4=g/4f/4g/4){b} (a/g/4=f/4) (^d/4e/4d/4e/4){g} (f/e/4=d/4)!>)! | %36
!p!!<(! !wedge!c z z c'/4b/4c'/4a/4 !wedge!g a/4g/4a/4f/4 !wedge!e f/4e/4f/4d/4!<)! | %37
!f!!>(! .c.c.c.c (Bf) !wedge!f2!>)! | %38
!p![Q:1/4=50]!>(! e2[Q:1/4=46][Q:1/4=42]{g} f[Q:1/4=38]e/d/[Q:1/4=34] ([FBd]2[Q:1/4=30]!>)!!pp![Q:1/4=26] [EGc]) z |] %39
V:2
 C2 z2 D2 B,G, | (C/G/B,/G/)[K:bass] (A,/C/F,/F/) (E/D/C/B,/) (TC/B,/C/D/) | E,2 D,C, D,2 B,,G,, | %3
 (C,/G,/)F, [G,E][G,D] CG, C, z |[K:treble] (C/G/E/G/) (B,/G/D/G/) (C/G/D/G/) (E/G/C/G/) | %5
[K:bass] (B,/D/A,/C/) (B,/D/G,/B,/) (A,/D/^F,/D/) (G,/F,/E,/D,/) | %6
 (C,/E,/A,/C/) (E/D/C/B,/) (A,/B,/C/B,/) (A,/B,/C/A,/) | %7
 (B,/^F,/G,/A,/) (B,/G,/C/A,/) (D/G/E/^C/) (D/=C/B,/A,/) | %8
 (G,/D/B,/D/) (G,/D/B,/D/) (A,/D/C/D/) (A,/D/C/D/) | %9
 (G,/D/B,/D/) (G,/D/B,/D/) (A,/D/C/D/) (A,/D/C/D/) | %10
[K:treble] (B,/G/D/G/) (B,/G/D/G/) (C/G/E/G/) (C/G/E/G/) | %11
 (B,/G/C/A/) (D/G/C/^F/) (B,/G/D/G/) (B,/G/D/G/) | [CG]2 !fermata!z z [B,G][CG] [DG][D^F] | %13
 !wedge!G, z z2 z/!f! (^F/G/A/) (_B/G/E/D/) | ^C z z2 z/ (^F/G/A/){c} _B/A/4G/4{G} =F/E/4D/4 | %15
 ^C z z2 D2 z2 | E2 ^CA, x4 | (B,/A/B,/_A/) (B,/G/B,/F/) (E/G/E/G/) (E/G/E/G/) | %18
 (F/G/F/G/) !wedge![B,^G] z[K:bass] .A,.A,.A,.A, | %19
 (^G,D) !wedge!D2 z/ ([F,A,]/[E,G,]/[F,A,]/ [E,G,]/[F,A,]/[E,G,]/[F,A,]/) | %20
[K:treble] z/ ([E^G]/[FA]/[EG]/ [FA]/[EG]/[FA]/[EG]/) ^DEFD | [E^G] z ([F^d]2 [Ee]) z ([Fd]2 | %22
 [Ee]) z z2 z4 | C2 z2 D2 B,G, | (C/G/B,/G/)[K:bass] (A,/C/F,/F/) (E/D/C/B,/) (TC/B,/C/D/) | %25
 E,2 D,C, D,2 B,,G,, | (C,/G,/)F, (G,/E/F,/D/) G,/C/F,/C/ !wedge!E, z | %27
[K:treble] (F/c/A/c/) (E/c/G/c/) (F/c/G/c/) (A/c/F/c/) | %28
 (E/G/D/F/) (E/G/C/E/) (D/G/B,/G/) (C/B,/A,/G,/) | (F,/A,/D/F/) (A/G/F/E/) (D/E/F/E/) (D/E/F/D/) | %30
 (E/B,/C/D/) (E/C/F/D/)[K:bass] (C/A,/G,/^F,/) (G,/=F,/E,/D,/) | %31
 (C,/G,/E,/G,/) (C,/G,/E,/G,/) (D,/G,/F,/G,/) (D,/G,/F,/G,/) | %32
[K:treble] (C/G/E/G/) (C/G/E/G/) (D/G/F/G/) (D/G/F/G/) | %33
[K:treble] (E/c/G/c/) (E/c/G/c/) (F/c/A/c/) (F/c/A/c/) | %34
 (E/c/F/d/) (G/c/F/B/) (E/c/G/c/) (E/c/G/c/) | [Fc]2 !fermata!z z [Ec][Fc] [Gc][GB] | %36
 !wedge!C c/4B/4c/4A/4 !wedge!G A/4G/4A/4F/4 !wedge!E F/4E/4F/4D/4 !wedge!C z | %37
 D/^F/D/F/ D/F/D/F/ D/=F/D/F/[K:bass] B,/D/B,/D/ | C3 D CG,C, z |] %39
V:3
 (E/G/E/G/) (E/G/E/G/) (F/G/F/G/) D/G/B,/G/ | x2[K:bass] x2 G,3 F, | %2
 (G,/C/G,/C/) F,/C/E,/C/ (F,/G,/F,/G,/) D,/G,/B,,/G,/ | x (A,/F/) x6 |[K:treble] x8 |[K:bass] x8 | %6
 x8 | x8 | x8 | x8 |[K:treble] x8 | x8 | x8 | x8 | x8 | x4 (F/A/F/A/) (F/A/F/A/) | %16
 (G/A/G/A/) E/A/^C/A/ (D/A/F/A/) (C/A/=C/A/) | x4 C2 x2 | D2 x2[K:bass] x4 | x8 |[K:treble] x4 A4 | %21
 x8 | x8 | (E/G/E/G/) (E/G/E/G/) (F/G/F/G/) D/G/B,/G/ | x2[K:bass] x2 G,3 F, | %25
 (G,/C/G,/C/) F,/C/E,/C/ (F,/G,/F,/G,/) D,/G,/B,,/G,/ | x (A,/F/) x2 (E,D,) !wedge!C, x | %27
[K:treble] x8 | x8 | x8 | x4[K:bass] x4 | x8 |[K:treble] x8 |[K:treble] x8 | x8 | x8 | x8 | %37
 [A,C]2 A,A, G,2[K:bass] G,^G, | A,G,F,G, x4 |] %39
V:4
 x8 | x8 | x8 | x8 | x8 | x8 | x8 | x8 | x8 | x8 | x8 | x8 | x8 | x8 | x8 | x8 | x8 | x8 | x8 | %19
 x8 | x8 | x8 | x8 | x8 | x8 | x8 | x8 | x8 | x8 | x8 | x8 | x8 | x8 | x8 | x8 | x8 | x8 | x8 | %38
 z GAB x4 |] %39

